public/icons/stars.svg

<svg width="184" height="32" viewBox="0 0 184 32" fill="none" xmlns="http://www.w3.org/2000/svg">
<path d="M24.625 30C24.4145 30.0008 24.2091 29.9352 24.0381 29.8125L16 23.985L7.96187 29.8125C7.79014 29.937 7.58325 30.0037 7.37111 30.003C7.15897 30.0022 6.95256 29.934 6.78175 29.8082C6.61093 29.6824 6.48454 29.5055 6.42086 29.3032C6.35718 29.1008 6.3595 28.8834 6.4275 28.6825L9.5625 19.3969L1.4375 13.825C1.2615 13.7044 1.12867 13.5307 1.05842 13.3293C0.988158 13.1279 0.984153 12.9093 1.04699 12.7054C1.10982 12.5016 1.2362 12.3231 1.40766 12.1962C1.57912 12.0693 1.78667 12.0005 2 12H12.0237L15.0487 2.6906C15.1139 2.48962 15.2411 2.31444 15.412 2.19019C15.5829 2.06595 15.7887 1.99902 16 1.99902C16.2113 1.99902 16.4171 2.06595 16.588 2.19019C16.7589 2.31444 16.8861 2.48962 16.9512 2.6906L19.9762 12.0031H30C30.2136 12.003 30.4216 12.0713 30.5936 12.198C30.7655 12.3246 30.8924 12.503 30.9557 12.7071C31.0189 12.9111 31.0151 13.13 30.945 13.3317C30.8748 13.5334 30.7418 13.7074 30.5656 13.8281L22.4375 19.3969L25.5706 28.68C25.6214 28.8303 25.6357 28.9905 25.6123 29.1474C25.5889 29.3043 25.5285 29.4534 25.4361 29.5823C25.3437 29.7113 25.222 29.8164 25.081 29.8891C24.9399 29.9617 24.7836 29.9997 24.625 30Z" fill="#FABC06"/>
<path d="M62.625 30C62.4145 30.0008 62.2091 29.9352 62.0381 29.8125L54 23.985L45.9619 29.8125C45.7901 29.937 45.5833 30.0037 45.3711 30.003C45.159 30.0022 44.9526 29.934 44.7817 29.8082C44.6109 29.6824 44.4845 29.5055 44.4209 29.3032C44.3572 29.1008 44.3595 28.8834 44.4275 28.6825L47.5625 19.3969L39.4375 13.825C39.2615 13.7044 39.1287 13.5307 39.0584 13.3293C38.9882 13.1279 38.9842 12.9093 39.047 12.7054C39.1098 12.5016 39.2362 12.3231 39.4077 12.1962C39.5791 12.0693 39.7867 12.0005 40 12H50.0237L53.0487 2.6906C53.1139 2.48962 53.2411 2.31444 53.412 2.19019C53.5829 2.06595 53.7887 1.99902 54 1.99902C54.2113 1.99902 54.4171 2.06595 54.588 2.19019C54.7589 2.31444 54.8861 2.48962 54.9512 2.6906L57.9762 12.0031H68C68.2136 12.003 68.4216 12.0713 68.5936 12.198C68.7655 12.3246 68.8924 12.503 68.9557 12.7071C69.0189 12.9111 69.0151 13.13 68.945 13.3317C68.8748 13.5334 68.7418 13.7074 68.5656 13.8281L60.4375 19.3969L63.5706 28.68C63.6214 28.8303 63.6357 28.9905 63.6123 29.1474C63.5889 29.3043 63.5285 29.4534 63.4361 29.5823C63.3437 29.7113 63.222 29.8164 63.081 29.8891C62.9399 29.9617 62.7836 29.9997 62.625 30Z" fill="#FABC06"/>
<path d="M100.625 30C100.415 30.0008 100.209 29.9352 100.038 29.8125L92 23.985L83.9619 29.8125C83.7901 29.937 83.5833 30.0037 83.3711 30.003C83.159 30.0022 82.9526 29.934 82.7817 29.8082C82.6109 29.6824 82.4845 29.5055 82.4209 29.3032C82.3572 29.1008 82.3595 28.8834 82.4275 28.6825L85.5625 19.3969L77.4375 13.825C77.2615 13.7044 77.1287 13.5307 77.0584 13.3293C76.9882 13.1279 76.9842 12.9093 77.047 12.7054C77.1098 12.5016 77.2362 12.3231 77.4077 12.1962C77.5791 12.0693 77.7867 12.0005 78 12H88.0237L91.0487 2.6906C91.1139 2.48962 91.2411 2.31444 91.412 2.19019C91.5829 2.06595 91.7887 1.99902 92 1.99902C92.2113 1.99902 92.4171 2.06595 92.588 2.19019C92.7589 2.31444 92.8861 2.48962 92.9512 2.6906L95.9762 12.0031H106C106.214 12.003 106.422 12.0713 106.594 12.198C106.766 12.3246 106.892 12.503 106.956 12.7071C107.019 12.9111 107.015 13.13 106.945 13.3317C106.875 13.5334 106.742 13.7074 106.566 13.8281L98.4375 19.3969L101.571 28.68C101.621 28.8303 101.636 28.9905 101.612 29.1474C101.589 29.3043 101.529 29.4534 101.436 29.5823C101.344 29.7113 101.222 29.8164 101.081 29.8891C100.94 29.9617 100.784 29.9997 100.625 30Z" fill="#FABC06"/>
<path d="M138.625 30C138.415 30.0008 138.209 29.9352 138.038 29.8125L130 23.985L121.962 29.8125C121.79 29.937 121.583 30.0037 121.371 30.003C121.159 30.0022 120.953 29.934 120.782 29.8082C120.611 29.6824 120.485 29.5055 120.421 29.3032C120.357 29.1008 120.36 28.8834 120.427 28.6825L123.562 19.3969L115.437 13.825C115.262 13.7044 115.129 13.5307 115.058 13.3293C114.988 13.1279 114.984 12.9093 115.047 12.7054C115.11 12.5016 115.236 12.3231 115.408 12.1962C115.579 12.0693 115.787 12.0005 116 12H126.024L129.049 2.6906C129.114 2.48962 129.241 2.31444 129.412 2.19019C129.583 2.06595 129.789 1.99902 130 1.99902C130.211 1.99902 130.417 2.06595 130.588 2.19019C130.759 2.31444 130.886 2.48962 130.951 2.6906L133.976 12.0031H144C144.214 12.003 144.422 12.0713 144.594 12.198C144.766 12.3246 144.892 12.503 144.956 12.7071C145.019 12.9111 145.015 13.13 144.945 13.3317C144.875 13.5334 144.742 13.7074 144.566 13.8281L136.437 19.3969L139.571 28.68C139.621 28.8303 139.636 28.9905 139.612 29.1474C139.589 29.3043 139.529 29.4534 139.436 29.5823C139.344 29.7113 139.222 29.8164 139.081 29.8891C138.94 29.9617 138.784 29.9997 138.625 30Z" fill="#FABC06"/>
<path d="M176.625 30C176.415 30.0008 176.209 29.9352 176.038 29.8125L168 23.985L159.962 29.8125C159.79 29.937 159.583 30.0037 159.371 30.003C159.159 30.0022 158.953 29.934 158.782 29.8082C158.611 29.6824 158.485 29.5055 158.421 29.3032C158.357 29.1008 158.36 28.8834 158.427 28.6825L161.562 19.3969L153.437 13.825C153.262 13.7044 153.129 13.5307 153.058 13.3293C152.988 13.1279 152.984 12.9093 153.047 12.7054C153.11 12.5016 153.236 12.3231 153.408 12.1962C153.579 12.0693 153.787 12.0005 154 12H164.024L167.049 2.6906C167.114 2.48962 167.241 2.31444 167.412 2.19019C167.583 2.06595 167.789 1.99902 168 1.99902C168.211 1.99902 168.417 2.06595 168.588 2.19019C168.759 2.31444 168.886 2.48962 168.951 2.6906L171.976 12.0031H182C182.214 12.003 182.422 12.0713 182.594 12.198C182.766 12.3246 182.892 12.503 182.956 12.7071C183.019 12.9111 183.015 13.13 182.945 13.3317C182.875 13.5334 182.742 13.7074 182.566 13.8281L174.437 19.3969L177.571 28.68C177.621 28.8303 177.636 28.9905 177.612 29.1474C177.589 29.3043 177.529 29.4534 177.436 29.5823C177.344 29.7113 177.222 29.8164 177.081 29.8891C176.94 29.9617 176.784 29.9997 176.625 30Z" fill="#FABC06"/>
</svg>

<svg xmlns="http://www.w3.org/2000/svg" width="184" height="32" fill="none"><path fill="#FABC06" d="M24.625 30a1 1 0 0 1-.587-.187L16 23.985l-8.038 5.828a1 1 0 0 1-1.534-1.13l3.135-9.286-8.126-5.572A1 1 0 0 1 2 12h10.024l3.025-9.31a1 1 0 0 1 1.902 0l3.025 9.313H30a1 1 0 0 1 .566 1.825l-8.128 5.569 3.133 9.283a1 1 0 0 1-.946 1.32M62.625 30a1 1 0 0 1-.587-.187L54 23.985l-8.038 5.828a1.001 1.001 0 0 1-1.535-1.13l3.136-9.286-8.126-5.572A1 1 0 0 1 40 12h10.024l3.025-9.31a1 1 0 0 1 1.902 0l3.025 9.313H68a1 1 0 0 1 .566 1.825l-8.129 5.569 3.134 9.283a1 1 0 0 1-.946 1.32M100.625 30c-.21 0-.416-.065-.587-.187L92 23.985l-8.038 5.828a1.001 1.001 0 0 1-1.535-1.13l3.135-9.286-8.124-5.572A1 1 0 0 1 78 12h10.024l3.025-9.31a1 1 0 0 1 1.902 0l3.025 9.313H106a1 1 0 0 1 .566 1.825l-8.129 5.569 3.134 9.283a1.002 1.002 0 0 1-.946 1.32M138.625 30c-.21 0-.416-.065-.587-.187L130 23.985l-8.038 5.828a1 1 0 0 1-1.18-.005 1 1 0 0 1-.355-1.125l3.135-9.286-8.125-5.572A1 1 0 0 1 116 12h10.024l3.025-9.31a.998.998 0 0 1 1.539-.5c.171.124.298.3.363.5l3.025 9.313H144a1 1 0 0 1 .566 1.825l-8.129 5.569 3.134 9.283a1.002 1.002 0 0 1-.946 1.32M176.625 30c-.21 0-.416-.065-.587-.187L168 23.985l-8.038 5.828a1 1 0 0 1-1.18-.005 1 1 0 0 1-.355-1.125l3.135-9.286-8.125-5.572A1 1 0 0 1 154 12h10.024l3.025-9.31a.998.998 0 0 1 1.539-.5c.171.124.298.3.363.5l3.025 9.313H182a1 1 0 0 1 .566 1.825l-8.129 5.569 3.134 9.283a1.002 1.002 0 0 1-.946 1.32"/></svg>
